X:1
T:By the Waters Edge
M:3/4
L:1/8
Q:80
C:Declan Masterson
S:Slow Air
K:HP
|: {g}fg | \
{ag}a2-ag{a}fd | \
{gef}e6 |
{g}fg{a}fe{g}dc | \
{gBd}B2{G}A4- | \
A4{g}fg |
{ag}a2-ag{a}fd | \
{gef}e4gf | \
{g}d6 |
{c}d6 :: \
{g}A4{GAG}A2 | \
{g}d4{c}d2 |
{gf}g2{a}gf{g}eg | \
{a}f2e4 | \
{g}A2{GAG}A2d2 |
{gef}e4{A}e2 | \
{g}fg{a}fe{g}dB | \
{gef}e6 :|
